X:196
T: MENSCHEN WOLLT IHR GLUECKLICH SEIN
N: F0341
O: Europa, Mitteleuropa, Deutschland
R: Jugend - Lied, Moral, Belehrung
M: 2/4
L: 1/16
K: G
 | d3ed2B2 | c3ed4 |
c3AG2F2 | G4z4 |
A3cB2d2 | e3cA4 |
c3AG2F2 | G4z4

@@@ Tune index: 5627
